X: 1
T: SGIAN DUBH
O: Kerr's 2nd
R: jig
N: "Scotch Jig"
Z: 2007 John Chambers <jc:trillian.mit.edu>
B: Kerr 2nd (c.1880) p.211 #319
M: 6/8
L: 1/8
K: Bm
D/C/\
| B,2B B2F | AFA ECA, | B,2B B2F | Bcd  c2B \
| B,2B B2F | AFA ECA, | D3   E3  | FDB, B,2 :|
e \
| f2B- Bcd | cBA ecA  | f2B- BcB | fge  fdB \
| f2B- Bcd | cBA ecA  | def  edc | fdB  B2  ||
e \
| f2B- Bcd | cBA ecA  | f2B- BcB | fge  fdB \
| faf  eae | cea ecA  | DEF  EFG | FDB, B,2 |]
